dist/svgs/crypto-icons/icons/rbt.svg

<?xml version="1.0" encoding="UTF-8" standalone="yes"?>
<svg xmlns="http://www.w3.org/2000/svg" xmlns:xlink="http://www.w3.org/1999/xlink" width="512px" height="512px" viewBox="0 0 384 384" version="1.1">
  <g id="surface1">
    <path style=" stroke:none;fill-rule:nonzero;fill:rgb(0%,0%,0%);fill-opacity:1;" d="M 157.253906 190.472656 L 197.128906 190.472656 C 230.777344 190.472656 230.777344 177.070312 230.777344 166.300781 C 230.777344 142.113281 213.4375 142.113281 206.035156 142.113281 L 34.9375 142.113281 C 34.34375 147.691406 34.042969 153.296875 34.039062 158.90625 C 34.039062 202.792969 51.804688 242.511719 80.59375 271.261719 L 80.566406 271.277344 L 192.9375 383.621094 L 232.75 343.816406 Z M 157.253906 190.472656 "/>
    <path style=" stroke:none;fill-rule:nonzero;fill:rgb(0%,0%,0%);fill-opacity:1;" d="M 351.832031 158.910156 C 351.832031 71.136719 280.683594 0 192.933594 0 C 128.910156 0 73.890625 37.9375 48.722656 92.488281 L 206.035156 92.488281 C 257.40625 92.488281 280.40625 129.5625 280.40625 166.300781 C 280.40625 200.179688 263.671875 224.0625 234.179688 234.382812 L 269.800781 306.765625 L 305.292969 271.277344 L 305.28125 271.265625 C 334.058594 242.515625 351.832031 202.792969 351.832031 158.910156 Z M 351.832031 158.910156 "/>
  </g>
</svg>

<svg xmlns="http://www.w3.org/2000/svg" viewBox="0 0 384 384"><path d="M157.254 190.473h39.875c33.648 0 33.648-13.403 33.648-24.172 0-24.188-17.34-24.188-24.742-24.188H34.938a159.71 159.71 0 00-.899 16.793c0 43.887 17.766 83.606 46.555 112.356l-.028.015 112.371 112.344 39.813-39.805zm0 0"/><path d="M351.832 158.91C351.832 71.137 280.684 0 192.934 0 128.91 0 73.89 37.938 48.723 92.488h157.312c51.371 0 74.371 37.075 74.371 73.813 0 33.879-16.734 57.762-46.226 68.082l35.62 72.383 35.493-35.489-.012-.011c28.778-28.75 46.551-68.473 46.551-112.356zm0 0"/></svg>
